0. ➡️➡️ LIGHT BASE (START HERE).lrtemplate
s = {
	id = "DCF3F04D-829C-4053-9840-B306623F6C2C",
	internalName = "0. ➡️➡️ LIGHT BASE (START HERE)",
	title = "0. ➡️➡️ LIGHT BASE (START HERE)",
	type = "Develop",
	value = {
		settings = {
			Blacks2012 = 80,
			Highlights2012 = -40,
			Shadows2012 = 40,
			Whites2012 = -40,
		},
		uuid = "624A5199-DA45-4894-95FC-EA5CCE1FE8C7",
	},
	version = 0,
}
