1-- Kodak Gold 200.xmp
<x:xmpmeta xmlns:x="adobe:ns:meta/" x:xmptk="Adobe XMP Core 5.6-c140 79.160451, 2017/05/06-01:08:21        ">
 <rdf:RDF xmlns:rdf="http://www.w3.org/1999/02/22-rdf-syntax-ns#">
  <rdf:Description rdf:about=""
    xmlns:crs="http://ns.adobe.com/camera-raw-settings/1.0/"
   crs:PresetType="Normal"
   crs:Cluster=""
   crs:UUID="FACB14DA289D44D698E7EF2871DD9B61"
   crs:SupportsAmount="False"
   crs:SupportsColor="True"
   crs:SupportsMonochrome="True"
   crs:SupportsHighDynamicRange="True"
   crs:SupportsNormalDynamicRange="True"
   crs:SupportsSceneReferred="True"
   crs:SupportsOutputReferred="True"
   crs:CameraModelRestriction=""
   crs:Copyright=""
   crs:ContactInfo=""
   crs:Version="10.5"
   crs:ProcessVersion="10.0"
   crs:Saturation="-15"
   crs:Sharpness="25"
   crs:ShadowTint="+5"
   crs:RedHue="+33"
   crs:RedSaturation="+40"
   crs:GreenHue="+55"
   crs:GreenSaturation="+6"
   crs:BlueHue="-5"
   crs:BlueSaturation="-12"
   crs:Vibrance="-2"
   crs:HueAdjustmentRed="+17"
   crs:HueAdjustmentOrange="-16"
   crs:HueAdjustmentYellow="+2"
   crs:HueAdjustmentGreen="+35"
   crs:HueAdjustmentAqua="+4"
   crs:HueAdjustmentBlue="+11"
   crs:HueAdjustmentPurple="-2"
   crs:HueAdjustmentMagenta="+5"
   crs:SaturationAdjustmentRed="-12"
   crs:SaturationAdjustmentOrange="-33"
   crs:SaturationAdjustmentYellow="-16"
   crs:SaturationAdjustmentGreen="-32"
   crs:SaturationAdjustmentAqua="0"
   crs:SaturationAdjustmentBlue="-7"
   crs:SaturationAdjustmentPurple="-23"
   crs:SaturationAdjustmentMagenta="-28"
   crs:LuminanceAdjustmentRed="+5"
   crs:LuminanceAdjustmentOrange="+5"
   crs:LuminanceAdjustmentYellow="+12"
   crs:LuminanceAdjustmentGreen="+1"
   crs:LuminanceAdjustmentAqua="+8"
   crs:LuminanceAdjustmentBlue="-23"
   crs:LuminanceAdjustmentPurple="+9"
   crs:LuminanceAdjustmentMagenta="0"
   crs:SplitToningShadowHue="0"
   crs:SplitToningShadowSaturation="0"
   crs:SplitToningHighlightHue="0"
   crs:SplitToningHighlightSaturation="0"
   crs:SplitToningBalance="0"
   crs:ParametricShadows="0"
   crs:ParametricDarks="0"
   crs:ParametricLights="0"
   crs:ParametricHighlights="0"
   crs:ParametricShadowSplit="25"
   crs:ParametricMidtoneSplit="50"
   crs:ParametricHighlightSplit="75"
   crs:SharpenRadius="+1.0"
   crs:SharpenDetail="25"
   crs:SharpenEdgeMasking="0"
   crs:Contrast2012="+82"
   crs:Clarity2012="0"
   crs:Dehaze="0"
   crs:ConvertToGrayscale="False"
   crs:ToneCurveName2012="Custom"
   crs:CameraProfile="Adobe Standard"
   crs:HasSettings="True">
   <crs:Name>
    <rdf:Alt>
     <rdf:li xml:lang="x-default">1-- Kodak Gold 200</rdf:li>
    </rdf:Alt>
   </crs:Name>
   <crs:ShortName>
    <rdf:Alt>
     <rdf:li xml:lang="x-default"/>
    </rdf:Alt>
   </crs:ShortName>
   <crs:SortName>
    <rdf:Alt>
     <rdf:li xml:lang="x-default"/>
    </rdf:Alt>
   </crs:SortName>
   <crs:Group>
    <rdf:Alt>
     <rdf:li xml:lang="x-default">OpenFilmStocks</rdf:li>
    </rdf:Alt>
   </crs:Group>
   <crs:Description>
    <rdf:Alt>
     <rdf:li xml:lang="x-default"/>
    </rdf:Alt>
   </crs:Description>
   <crs:ToneCurvePV2012>
    <rdf:Seq>
     <rdf:li>0, 0</rdf:li>
     <rdf:li>49, 33</rdf:li>
     <rdf:li>78, 64</rdf:li>
     <rdf:li>129, 131</rdf:li>
     <rdf:li>203, 204</rdf:li>
     <rdf:li>254, 243</rdf:li>
    </rdf:Seq>
   </crs:ToneCurvePV2012>
   <crs:ToneCurvePV2012Red>
    <rdf:Seq>
     <rdf:li>0, 0</rdf:li>
     <rdf:li>68, 56</rdf:li>
     <rdf:li>184, 186</rdf:li>
     <rdf:li>255, 251</rdf:li>
    </rdf:Seq>
   </crs:ToneCurvePV2012Red>
   <crs:ToneCurvePV2012Green>
    <rdf:Seq>
     <rdf:li>0, 0</rdf:li>
     <rdf:li>60, 60</rdf:li>
     <rdf:li>190, 191</rdf:li>
     <rdf:li>255, 255</rdf:li>
    </rdf:Seq>
   </crs:ToneCurvePV2012Green>
   <crs:ToneCurvePV2012Blue>
    <rdf:Seq>
     <rdf:li>0, 0</rdf:li>
     <rdf:li>67, 61</rdf:li>
     <rdf:li>255, 255</rdf:li>
    </rdf:Seq>
   </crs:ToneCurvePV2012Blue>
   <crs:Look
    crs:Name=""/>
  </rdf:Description>
 </rdf:RDF>
</x:xmpmeta>
