1.4 TRI-X 400.lrtemplate
s = {
	id = "71117DEA-F8AB-4331-84A5-C7562D468EC4",
	internalName = "1.4 TRI-X 400",
	title = "1.4 TRI-X 400",
	type = "Develop",
	value = {
		settings = {
			BlueHue = -10,
			BlueSaturation = -10,
			CameraProfile = "Adobe Standard",
			Clarity2012 = 0,
			ColorNoiseReduction = 25,
			ColorNoiseReductionDetail = 50,
			ColorNoiseReductionSmoothness = 50,
			Contrast2012 = 80,
			ConvertToGrayscale = true,
			EnableCalibration = true,
			EnableDetail = true,
			EnableSplitToning = true,
			GreenHue = 60,
			GreenSaturation = 10,
			LuminanceNoiseReductionContrast = 0,
			LuminanceNoiseReductionDetail = 50,
			LuminanceSmoothing = 0,
			ParametricDarks = 0,
			ParametricHighlightSplit = 75,
			ParametricHighlights = 0,
			ParametricLights = 0,
			ParametricMidtoneSplit = 50,
			ParametricShadowSplit = 25,
			ParametricShadows = 0,
			ProcessVersion = "10.0",
			RedHue = 20,
			RedSaturation = 20,
			ShadowTint = 0,
			SharpenDetail = 25,
			SharpenEdgeMasking = 0,
			SharpenRadius = 1,
			Sharpness = 25,
			SplitToningBalance = 0,
			SplitToningHighlightHue = 0,
			SplitToningHighlightSaturation = 0,
			SplitToningShadowHue = 0,
			SplitToningShadowSaturation = 0,
			ToneCurveName2012 = "Custom",
			ToneCurvePV2012 = {
				0,
				0,
				62,
				43,
				98,
				93,
				146,
				162,
				229,
				230,
				255,
				255,
			},
			ToneCurvePV2012Blue = {
				0,
				0,
				255,
				255,
			},
			ToneCurvePV2012Green = {
				0,
				0,
				255,
				255,
			},
			ToneCurvePV2012Red = {
				0,
				0,
				255,
				255,
			},
		},
		uuid = "72BD11A3-5314-408B-B88B-181A84759B30",
	},
	version = 0,
}
