2.1.2 Kodak Ektar 100.xmp
<x:xmpmeta xmlns:x="adobe:ns:meta/" x:xmptk="Adobe XMP Core 5.6-c140 79.160451, 2017/05/06-01:08:21        ">
 <rdf:RDF xmlns:rdf="http://www.w3.org/1999/02/22-rdf-syntax-ns#">
  <rdf:Description rdf:about=""
    xmlns:crs="http://ns.adobe.com/camera-raw-settings/1.0/"
   crs:PresetType="Normal"
   crs:Cluster=""
   crs:UUID="4396EB39777246DBB51F76680926BBBA"
   crs:SupportsAmount="False"
   crs:SupportsColor="True"
   crs:SupportsMonochrome="True"
   crs:SupportsHighDynamicRange="True"
   crs:SupportsNormalDynamicRange="True"
   crs:SupportsSceneReferred="True"
   crs:SupportsOutputReferred="True"
   crs:CameraModelRestriction=""
   crs:Copyright=""
   crs:ContactInfo=""
   crs:Version="11.0"
   crs:ProcessVersion="11.0"
   crs:Saturation="+5"
   crs:ShadowTint="0"
   crs:RedHue="+15"
   crs:RedSaturation="+15"
   crs:GreenHue="+55"
   crs:GreenSaturation="+10"
   crs:BlueHue="-10"
   crs:BlueSaturation="-5"
   crs:Vibrance="-6"
   crs:HueAdjustmentRed="+15"
   crs:HueAdjustmentOrange="0"
   crs:HueAdjustmentYellow="0"
   crs:HueAdjustmentGreen="+25"
   crs:HueAdjustmentAqua="+5"
   crs:HueAdjustmentBlue="+5"
   crs:HueAdjustmentPurple="-15"
   crs:HueAdjustmentMagenta="+15"
   crs:SaturationAdjustmentRed="-25"
   crs:SaturationAdjustmentOrange="-25"
   crs:SaturationAdjustmentYellow="-25"
   crs:SaturationAdjustmentGreen="-45"
   crs:SaturationAdjustmentAqua="-15"
   crs:SaturationAdjustmentBlue="-30"
   crs:SaturationAdjustmentPurple="-20"
   crs:SaturationAdjustmentMagenta="-30"
   crs:LuminanceAdjustmentRed="-15"
   crs:LuminanceAdjustmentOrange="-5"
   crs:LuminanceAdjustmentYellow="-5"
   crs:LuminanceAdjustmentGreen="-10"
   crs:LuminanceAdjustmentAqua="-10"
   crs:LuminanceAdjustmentBlue="-10"
   crs:LuminanceAdjustmentPurple="+10"
   crs:LuminanceAdjustmentMagenta="0"
   crs:ParametricShadows="-10"
   crs:ParametricDarks="+7"
   crs:ParametricLights="+2"
   crs:ParametricHighlights="-3"
   crs:ParametricShadowSplit="25"
   crs:ParametricMidtoneSplit="50"
   crs:ParametricHighlightSplit="75"
   crs:Contrast2012="+40"
   crs:ToneCurveName2012="Custom"
   crs:HasSettings="True">
   <crs:Name>
    <rdf:Alt>
     <rdf:li xml:lang="x-default">2.1.2 Kodak Ektar 100</rdf:li>
    </rdf:Alt>
   </crs:Name>
   <crs:ShortName>
    <rdf:Alt>
     <rdf:li xml:lang="x-default"/>
    </rdf:Alt>
   </crs:ShortName>
   <crs:SortName>
    <rdf:Alt>
     <rdf:li xml:lang="x-default"/>
    </rdf:Alt>
   </crs:SortName>
   <crs:Group>
    <rdf:Alt>
     <rdf:li xml:lang="x-default">OpenFilmStocks</rdf:li>
    </rdf:Alt>
   </crs:Group>
   <crs:Description>
    <rdf:Alt>
     <rdf:li xml:lang="x-default"/>
    </rdf:Alt>
   </crs:Description>
   <crs:ToneCurvePV2012>
    <rdf:Seq>
     <rdf:li>0, 0</rdf:li>
     <rdf:li>40, 24</rdf:li>
     <rdf:li>127, 125</rdf:li>
     <rdf:li>212, 218</rdf:li>
     <rdf:li>254, 249</rdf:li>
    </rdf:Seq>
   </crs:ToneCurvePV2012>
   <crs:ToneCurvePV2012Red>
    <rdf:Seq>
     <rdf:li>0, 0</rdf:li>
     <rdf:li>62, 29</rdf:li>
     <rdf:li>127, 127</rdf:li>
     <rdf:li>191, 207</rdf:li>
     <rdf:li>255, 255</rdf:li>
    </rdf:Seq>
   </crs:ToneCurvePV2012Red>
   <crs:ToneCurvePV2012Green>
    <rdf:Seq>
     <rdf:li>0, 0</rdf:li>
     <rdf:li>60, 34</rdf:li>
     <rdf:li>135, 140</rdf:li>
     <rdf:li>202, 215</rdf:li>
     <rdf:li>255, 255</rdf:li>
    </rdf:Seq>
   </crs:ToneCurvePV2012Green>
   <crs:ToneCurvePV2012Blue>
    <rdf:Seq>
     <rdf:li>0, 0</rdf:li>
     <rdf:li>60, 33</rdf:li>
     <rdf:li>132, 123</rdf:li>
     <rdf:li>191, 199</rdf:li>
     <rdf:li>255, 255</rdf:li>
    </rdf:Seq>
   </crs:ToneCurvePV2012Blue>
  </rdf:Description>
 </rdf:RDF>
</x:xmpmeta>
