2.1.4 Kodak Portra 160.xmp
<x:xmpmeta xmlns:x="adobe:ns:meta/" x:xmptk="Adobe XMP Core 5.6-c140 79.160451, 2017/05/06-01:08:21        ">
 <rdf:RDF xmlns:rdf="http://www.w3.org/1999/02/22-rdf-syntax-ns#">
  <rdf:Description rdf:about=""
    xmlns:crs="http://ns.adobe.com/camera-raw-settings/1.0/"
   crs:PresetType="Normal"
   crs:Cluster=""
   crs:UUID="9B17D81EAAE040D79B2F8ABE576A2FF6"
   crs:SupportsAmount="False"
   crs:SupportsColor="True"
   crs:SupportsMonochrome="True"
   crs:SupportsHighDynamicRange="True"
   crs:SupportsNormalDynamicRange="True"
   crs:SupportsSceneReferred="True"
   crs:SupportsOutputReferred="True"
   crs:CameraModelRestriction=""
   crs:Copyright=""
   crs:ContactInfo=""
   crs:Version="11.0"
   crs:ProcessVersion="10.0"
   crs:Saturation="-9"
   crs:Sharpness="25"
   crs:ShadowTint="0"
   crs:RedHue="+15"
   crs:RedSaturation="0"
   crs:GreenHue="+15"
   crs:GreenSaturation="0"
   crs:BlueHue="-10"
   crs:BlueSaturation="0"
   crs:Vibrance="-5"
   crs:HueAdjustmentRed="+3"
   crs:HueAdjustmentOrange="+9"
   crs:HueAdjustmentYellow="+15"
   crs:HueAdjustmentGreen="+25"
   crs:HueAdjustmentAqua="+19"
   crs:HueAdjustmentBlue="+4"
   crs:HueAdjustmentPurple="-6"
   crs:HueAdjustmentMagenta="-5"
   crs:SaturationAdjustmentRed="-14"
   crs:SaturationAdjustmentOrange="-22"
   crs:SaturationAdjustmentYellow="-20"
   crs:SaturationAdjustmentGreen="-17"
   crs:SaturationAdjustmentAqua="0"
   crs:SaturationAdjustmentBlue="-1"
   crs:SaturationAdjustmentPurple="-49"
   crs:SaturationAdjustmentMagenta="-36"
   crs:LuminanceAdjustmentRed="-9"
   crs:LuminanceAdjustmentOrange="+6"
   crs:LuminanceAdjustmentYellow="+10"
   crs:LuminanceAdjustmentGreen="+23"
   crs:LuminanceAdjustmentAqua="+10"
   crs:LuminanceAdjustmentBlue="-4"
   crs:LuminanceAdjustmentPurple="0"
   crs:LuminanceAdjustmentMagenta="0"
   crs:SplitToningShadowHue="0"
   crs:SplitToningShadowSaturation="0"
   crs:SplitToningHighlightHue="0"
   crs:SplitToningHighlightSaturation="0"
   crs:SplitToningBalance="0"
   crs:ParametricShadows="0"
   crs:ParametricDarks="0"
   crs:ParametricLights="0"
   crs:ParametricHighlights="0"
   crs:ParametricShadowSplit="25"
   crs:ParametricMidtoneSplit="50"
   crs:ParametricHighlightSplit="75"
   crs:SharpenRadius="+1.0"
   crs:SharpenDetail="25"
   crs:SharpenEdgeMasking="0"
   crs:Contrast2012="+74"
   crs:Clarity2012="0"
   crs:ConvertToGrayscale="False"
   crs:ToneCurveName2012="Custom"
   crs:CameraProfile="Adobe Standard"
   crs:HasSettings="True">
   <crs:Name>
    <rdf:Alt>
     <rdf:li xml:lang="x-default">2.1.4 Kodak Portra 160</rdf:li>
    </rdf:Alt>
   </crs:Name>
   <crs:ShortName>
    <rdf:Alt>
     <rdf:li xml:lang="x-default"/>
    </rdf:Alt>
   </crs:ShortName>
   <crs:SortName>
    <rdf:Alt>
     <rdf:li xml:lang="x-default"/>
    </rdf:Alt>
   </crs:SortName>
   <crs:Group>
    <rdf:Alt>
     <rdf:li xml:lang="x-default">OpenFilmStocks</rdf:li>
    </rdf:Alt>
   </crs:Group>
   <crs:Description>
    <rdf:Alt>
     <rdf:li xml:lang="x-default"/>
    </rdf:Alt>
   </crs:Description>
   <crs:ToneCurvePV2012>
    <rdf:Seq>
     <rdf:li>0, 0</rdf:li>
     <rdf:li>30, 13</rdf:li>
     <rdf:li>66, 51</rdf:li>
     <rdf:li>132, 122</rdf:li>
     <rdf:li>206, 209</rdf:li>
     <rdf:li>255, 243</rdf:li>
    </rdf:Seq>
   </crs:ToneCurvePV2012>
   <crs:ToneCurvePV2012Red>
    <rdf:Seq>
     <rdf:li>0, 0</rdf:li>
     <rdf:li>255, 255</rdf:li>
    </rdf:Seq>
   </crs:ToneCurvePV2012Red>
   <crs:ToneCurvePV2012Green>
    <rdf:Seq>
     <rdf:li>0, 0</rdf:li>
     <rdf:li>255, 255</rdf:li>
    </rdf:Seq>
   </crs:ToneCurvePV2012Green>
   <crs:ToneCurvePV2012Blue>
    <rdf:Seq>
     <rdf:li>0, 0</rdf:li>
     <rdf:li>255, 255</rdf:li>
    </rdf:Seq>
   </crs:ToneCurvePV2012Blue>
   <crs:Look
    crs:Name=""/>
  </rdf:Description>
 </rdf:RDF>
</x:xmpmeta>
